X:331
T:Hala, hala ninnoy i
Z:Jack Campin, http://www.campin.me.uk/
F:Jack Campin's Nine-Note Tunebook
% last edit 03-02-2013
S:a website about Komitas Vardapet
D:on a Knar CD
G:lullaby?
M:4/4
L:1/8
Q:1/4=100
K:DDor
 D2     (DA)  A2      A2    |(AG)    (G>F)   A4  |\
 FG      FG  (A2{B}) (A>F)  |(G2{A}) (GE)    F3z |
(A2{B}) (AF)  G2     (G2{A})|(F2{G}) (E2{F}) G4  |\
 DD      DC   F2     (FG)   |(F>G)   (E>D)   D3z||
 c2     (cB) (c>A)    A2    | A2     (A>G)   A4  |\
 FF      FG  (A2{c}) (A>F)  |(G2{A}) (G>E)  (F3G)|
(A2{B}) (AF)  G2     (G2{A})|(F2{G}) (E2{F}) G3z |\
 DD      DC  E2      (F>E)  |(FG)    (E>D)   D4 |]

